X:12
T:Valentines Day in the Morning
%%VWML:RutherfordSelect-4785-p12-0
F:http://www.vwml.org/record/RutherfordSelect/4785/p12
Z:Transcribed by David Jacobs February 2016
S:12 Selected Country Dances 1772, John Rutherford
L:1/8
M:9/8
K:D
V:1     clef=treble
V:2     clef=bass
V:1
G|FGA BAG FED|FGA Bcd e2G|FGA BAG FGA|Bgf edcd2:|
e|ede fga ecA|Bcd AGFE2a|bgb afd cBA|Bgf edcd2:|
V:2
z|D,3G,3D,3|D,3G,3A,3|D,3D,3D,3|G,3A,2A,,D,2:|
z |D,3D,3A,3|G,3F,E,D,A,3|G,3F,3A,2F,|G,3A,2A,,D,2:|
W:
W:The first man truns his Partner with his right hand
W:And cast off one Cu..|
W:Turn with your left hands 
W:The Man cast off the Wo. cast up and the mand falls inbetween the 3rd Cu.
W:His Partner between the Second Cu. at hte same time .|.
W:Lead outsides and turn :|:
